X:1
T:Title
%%score { ( 1 3 ) | ( 2 4 ) }
L:1/8
Q:1/4=100
M:6/8
K:Bb
V:1 treble nm="Grand Piano"
V:3 treble 
V:2 bass 
V:4 bass 
V:1
 [DF][_D=E][=DF] [_EG][DF][_D=E] | [DF] [DB]2- [DB]2 z | [DF][_D=E][=DF] [_EG][DF][DB] | [EA]6 | %4
w: George~Bennard * * * * *||||
 cAG cAG | c A2- A2 z | EDE GAG | [DF]6 | [Fd][Ec][DB] cBA | [Ec] [DB]2- [DB]2 z | %10
w: ||||||
 [DB][DA][DB] c2 B | G6 | BBB BAG | F d2- d2 z | dcB [=EG][Ed][E_d] | c6[K:bass] | %16
w: ||||||
 .[B,DF]3 .[DG]3 | .[B,DF]3 [DG]3 | [DB][DA][DG] [DF]2 [DG] | A6 | F3 G3 | z2 E G3 | AB=B c2 _d | %23
w: |||||||
 d6 | ded cdc | [DB]3 [DB]3 | [DB][DA][DB] c2 B | G6 | BBB BAG | F d2- d2 z | %30
w: |||||||
[M:29/32] z/4 z/4 z/ e/-<e/d/-<d/ z/4 z/4 z/4 z/4 z/4 z/4 z/4 z/4 z/4 z/4 z/4 z/4 z/4 z/4 z/4 z/ | %31
w: |
[M:3/4] [DB]4- [DB]-[DB]/4 z/4 z/ |] %32
w: |
V:2
 [B,,B,][B,,B,][B,,B,] [B,,B,][B,,B,][B,,B,] | [B,,B,] [B,,F,]2- [B,,F,]2 z | %2
 [B,,B,][B,,B,][B,,B,] [B,,B,][B,,B,][B,,F,] | [C,F,]6 | %4
 [F,A,E][F,CE][F,B,E] [F,A,E][F,CE][F,B,E] | [F,A,E] [F,CE]2- [F,CE]2 z | %6
 [F,C][F,=B,][F,C] [F,A,E][F,CE][F,A,E] | [B,,B,]6 | [B,,B,][B,,B,][B,,B,] [F,E][F,D][F,C] | %9
 [B,,F,] [B,,F,]2- [B,,F,]2 z | [B,,F,][B,,F,][B,,F,] [E,G,E]2 [E,G,E] | [E,B,E]6 | %12
 [=E,G,_D][E,G,D][E,G,D] [E,G,D][E,A,D][E,B,D] | [F,B,D] [F,B,F]2- [F,B,F]2 z | %14
 [G,B,=E][G,B,E][G,CE] [C,C][C,B,][C,B,] | [A,E]6 | z DD z DD | z2 D [B,,F,]3 | %18
 [B,,F,][B,,F,][B,,F,] [B,,B,]2 [B,,B,] | [C,F,][C,F,][C,F,] .F,3 | .[F,A,E]3 .[F,CE]3 | %21
 .[F,A,E]3 [F,CE]3 | [F,CE][F,B,E][F,_A,E] [F,=A,E]2[K:treble] =E | [B,F]B,B, B,3 | %24
 [B,F][B,G][B,F][K:bass] [F,A,E][F,A,F][F,A,E] | [B,,B,]3 [B,,B,]3 | %26
 [B,,F,][B,,F,][B,,F,] [E,G,E]2 [E,G,E] | [E,B,E]6 | %28
 [=E,G,_D][E,G,D][E,G,D] [E,G,D][E,A,D][E,B,D] | [F,B,D][K:treble] [B,F]2- [B,F]2 z | %30
[M:29/32] z/4 z/4 z/[K:bass] [F,CF]/-<[F,CF]/[F,B,F]/-<[F,B,F]/ z/4 z/4 z/4 z/4 z/4 z/4 z/4 z/4 z/4 z/4 z/4 z/4 z/4 z/4 z/4 z/ | %31
[M:3/4] [B,,F,]4- [B,,F,]-[B,,F,]/4 z/4 z/ |] %32
V:3
 x6 | x6 | x6 | x6 | x6 | x6 | x6 | x6 | x6 | x6 | x6 | x6 | x6 | x6 | x6 | z[K:bass] G,F,- F,2 z | %16
 x6 | x6 | x6 | EEE .E3 | z EE z EE | F3 z3 | x6 | z AG F3 | x6 | x6 | x6 | x6 | x6 | x6 | %30
[M:29/32] (5:4:17d3/4-d/8-d/32 z3/4 z/8 z/32 z3/2 z/4 z/16 c3/4-c/8-c/32 G2- G/-G3/16-G/32A3/2- x/5 (5:4:1A/16 | %31
[M:3/4] x6 |] %32
V:4
 x6 | x6 | x6 | x6 | x6 | x6 | x6 | x6 | x6 | x6 | x6 | x6 | x6 | x6 | x6 | .F,3 E,D,C, | %16
 B,,3 [B,,F,]3 | B,,3 z3 | x6 | x6 | x6 | x6 | x5[K:treble] x | x6 | x3[K:bass] x3 | x6 | x6 | x6 | %28
 x6 | x[K:treble] x5 | %30
[M:29/32] (5:4:17[F,B,F]3/4-[F,B,F]/8-[F,B,F]/32 z3/4[K:bass] z/8 z/32 z3/2 z/4 z/16 [F,A,E]3/4-[F,A,E]/8-[F,A,E]/32 [F,CE]2- [F,CE]/-[F,CE]3/16-[F,CE]/32[F,E]3/2- x/5 (5:4:1[F,E]/16 | %31
[M:3/4] x6 |] %32

